src/logo/logomark.svg

<svg width="38" height="38" viewBox="0 0 38 38" fill="none" xmlns="http://www.w3.org/2000/svg">
<g filter="url(#filter0_dd_8303_264)">
<rect x="3.1" y="2.1" width="31.8" height="31.8" rx="7.9" fill="white"/>
<rect x="3.1" y="2.1" width="31.8" height="31.8" rx="7.9" fill="url(#paint0_linear_8303_264)"/>
<rect x="3.1" y="2.1" width="31.8" height="31.8" rx="7.9" stroke="#D0D5DD" stroke-width="0.2"/>
<path d="M30 18.5C30 24.6436 25.0569 29.5909 19 29.5909C12.9431 29.5909 8 24.6436 8 18.5C8 12.3563 12.9431 7.40906 19 7.40906C25.0569 7.40906 30 12.3563 30 18.5Z" stroke="#155EEF" stroke-width="6"/>
<path d="M3 18H35V21.2C35 25.6804 35 27.9206 34.1281 29.6319C33.3611 31.1372 32.1372 32.3611 30.6319 33.1281C28.9206 34 26.6804 34 22.2 34H15.8C11.3196 34 9.07937 34 7.36808 33.1281C5.86278 32.3611 4.63893 31.1372 3.87195 29.6319C3 27.9206 3 25.6804 3 21.2V18Z" fill="white" fill-opacity="0.2"/>
</g>
<defs>
<filter id="filter0_dd_8303_264" x="0" y="0" width="38" height="38" filterUnits="userSpaceOnUse" color-interpolation-filters="sRGB">
<feFlood flood-opacity="0" result="BackgroundImageFix"/>
<feColorMatrix in="SourceAlpha" type="matrix" values="0 0 0 0 0 0 0 0 0 0 0 0 0 0 0 0 0 0 127 0" result="hardAlpha"/>
<feOffset dy="1"/>
<feGaussianBlur stdDeviation="1"/>
<feColorMatrix type="matrix" values="0 0 0 0 0.0627451 0 0 0 0 0.0941176 0 0 0 0 0.156863 0 0 0 0.06 0"/>
<feBlend mode="normal" in2="BackgroundImageFix" result="effect1_dropShadow_8303_264"/>
<feColorMatrix in="SourceAlpha" type="matrix" values="0 0 0 0 0 0 0 0 0 0 0 0 0 0 0 0 0 0 127 0" result="hardAlpha"/>
<feOffset dy="1"/>
<feGaussianBlur stdDeviation="1.5"/>
<feColorMatrix type="matrix" values="0 0 0 0 0.0627451 0 0 0 0 0.0941176 0 0 0 0 0.156863 0 0 0 0.1 0"/>
<feBlend mode="normal" in2="effect1_dropShadow_8303_264" result="effect2_dropShadow_8303_264"/>
<feBlend mode="normal" in="SourceGraphic" in2="effect2_dropShadow_8303_264" result="shape"/>
</filter>
<linearGradient id="paint0_linear_8303_264" x1="19" y1="2" x2="19" y2="34" gradientUnits="userSpaceOnUse">
<stop stop-color="white"/>
<stop offset="1" stop-color="#D0D5DD"/>
</linearGradient>
</defs>
</svg>

<svg width="38" height="38" fill="none" xmlns="http://www.w3.org/2000/svg"><g filter="url(#Logomark__a)"><rect x="3.1" y="2.1" width="31.8" height="31.8" rx="7.9" fill="#fff"/><rect x="3.1" y="2.1" width="31.8" height="31.8" rx="7.9" fill="url(#Logomark__b)"/><path d="M30 18.5c0 6.144-4.943 11.09-11 11.09S8 24.645 8 18.5 12.943 7.41 19 7.41s11 4.946 11 11.09Z" stroke="#155EEF" stroke-width="6"/><g filter="url(#Logomark__c)"><path d="M3 18h32v3.2c0 4.48 0 6.72-.872 8.432a8 8 0 0 1-3.496 3.496C28.92 34 26.68 34 22.2 34h-6.4c-4.48 0-6.72 0-8.432-.872a8 8 0 0 1-3.496-3.496C3 27.92 3 25.68 3 21.2V18Z" fill="#fff" fill-opacity=".2"/></g><rect x="3.1" y="2.1" width="31.8" height="31.8" rx="7.9" stroke="#D0D5DD" stroke-width=".2"/></g><defs><filter id="Logomark__a" x="0" y="0" width="38" height="38" filterUnits="userSpaceOnUse" color-interpolation-filters="sRGB"><feFlood flood-opacity="0" result="BackgroundImageFix"/><feColorMatrix in="SourceAlpha" values="0 0 0 0 0 0 0 0 0 0 0 0 0 0 0 0 0 0 127 0" result="hardAlpha"/><feOffset dy="1"/><feGaussianBlur stdDeviation="1"/><feColorMatrix values="0 0 0 0 0.0627451 0 0 0 0 0.0941176 0 0 0 0 0.156863 0 0 0 0.06 0"/><feBlend in2="BackgroundImageFix" result="effect1_dropShadow_12_34546"/><feColorMatrix in="SourceAlpha" values="0 0 0 0 0 0 0 0 0 0 0 0 0 0 0 0 0 0 127 0" result="hardAlpha"/><feOffset dy="1"/><feGaussianBlur stdDeviation="1.5"/><feColorMatrix values="0 0 0 0 0.0627451 0 0 0 0 0.0941176 0 0 0 0 0.156863 0 0 0 0.1 0"/><feBlend in2="effect1_dropShadow_12_34546" result="effect2_dropShadow_12_34546"/><feBlend in="SourceGraphic" in2="effect2_dropShadow_12_34546" result="shape"/></filter><filter id="Logomark__c" x="-2" y="13" width="42" height="26" filterUnits="userSpaceOnUse" color-interpolation-filters="sRGB"><feFlood flood-opacity="0" result="BackgroundImageFix"/><feGaussianBlur in="BackgroundImageFix" stdDeviation="2.5"/><feComposite in2="SourceAlpha" operator="in" result="effect1_backgroundBlur_12_34546"/><feBlend in="SourceGraphic" in2="effect1_backgroundBlur_12_34546" result="shape"/></filter><linearGradient id="Logomark__b" x1="19" y1="2" x2="19" y2="34" gradientUnits="userSpaceOnUse"><stop stop-color="#fff"/><stop offset="1" stop-color="#D0D5DD"/></linearGradient></defs></svg>
